X:817
T:Francis John McGovern's
R:reel
D:Charlie Lennon: Lucky in Love
Z:id:hn-reel-817
M:C|
L:1/8
K:G
BcBA GEDE|G2BG cGBG|BcBA GEDG|EAAG A2GA:|
(3Bcd ed gded|gded BG~G2|(3Bcd ed g2ed|eaag a2ge|
(3Bcd ed gded|gded BG~G2|BcBA GEDG|EAAG A2GA||
P:variations
|:BcBA GEDE|G2BG cGBG|BcBA GEDG|EAAG ABGA:|
Bded g2ed|gded BAGA|Bded gedg|eaag aged|
Bded gded|g2ed BAGA|~B3A GEDG|EAAG A4||

